brandFactory_export/2.Regular/Documento_Archivo ok_2Regular.svg

<?xml version="1.0" encoding="UTF-8"?>
<svg width="24px" height="24px" viewBox="0 0 24 24" version="1.1" xmlns="http://www.w3.org/2000/svg" xmlns:xlink="http://www.w3.org/1999/xlink">
    <title>2.Regular/Documento_Archivo ok_2Regular</title>
    <g id="Symbols" stroke="none" stroke-width="1" fill="none" fill-rule="evenodd">
        <g id="2.Regular/Documento_Archivo-ok_2Regular" fill="#5CB615" fill-rule="nonzero">
            <path d="M22.1781513,21.9697479 L22.1781513,8.23193277 L19.405042,8.23193277 C18.1915966,8.23193277 17.1428571,7.83529412 16.3731092,7.08907563 C15.6033613,6.33613445 15.189916,5.30756303 15.189916,4.11092437 L15.189916,1.45210084 L7.36134454,1.45210084 C7.27394958,1.45210084 7.12941176,1.58655462 7.12941176,1.65378151 L7.12941176,6.39327731 C8.34285714,6.53109244 9.14285714,7.05210084 9.78823529,7.49579832 C10.5478992,8 11.0991597,8.36638655 12.1579832,8.19159664 C12.3697479,8.16134454 12.5915966,8.21176471 12.7563025,8.35630252 C12.9109244,8.4907563 13.0151261,8.68571429 13.0151261,8.89747899 C13.0151261,8.98487395 13.0151261,10.0705882 12.9747899,11.394958 L19.3512605,11.394958 C19.7445378,11.394958 20.0739496,11.7243697 20.0739496,12.1210084 C20.0739496,12.5277311 19.7445378,12.8470588 19.3512605,12.8470588 L12.9277311,12.8470588 C12.897479,13.5630252 12.8504202,14.2789916 12.7831933,14.8907563 L19.3680672,14.8907563 C19.7714286,14.8907563 20.0907563,15.210084 20.0907563,15.6168067 C20.0907563,16.0134454 19.7714286,16.3428571 19.3680672,16.3428571 L12.4739496,16.3428571 C12.1647059,17.0487395 11.5798319,17.7344538 10.9042017,18.3462185 L19.3680672,18.3462185 C19.7714286,18.3462185 20.0907563,18.6655462 20.0907563,19.0722689 C20.0907563,19.4689076 19.7714286,19.7983193 19.3680672,19.7983193 L8.94789916,19.7983193 C8.20504202,20.2722689 7.52268908,20.6319328 7.12941176,20.8336134 L7.12941176,21.9764706 C7.12941176,22.0436975 7.24369748,22.1781513 7.36134454,22.1781513 L21.9394958,22.1781513 C22.0638655,22.1714286 22.1781513,22.0571429 22.1781513,21.9697479 L22.1781513,21.9697479 Z M1.75462185,15.4117647 C1.99663866,16.8033613 4.67226891,18.594958 6.50084034,19.512605 C8.32941176,18.594958 11.0184874,16.8033613 11.2571429,15.4117647 C11.3714286,14.7159664 11.4487395,13.6235294 11.4991597,12.5378151 C11.5361345,11.4554622 11.5563025,10.3697479 11.5663866,9.67394958 C10.4,9.64369748 9.6605042,9.15294118 8.98487395,8.70588235 C8.27226891,8.22184874 7.64705882,7.80504202 6.50084034,7.80504202 C5.35462185,7.80504202 4.7394958,8.22184874 4.01680672,8.70588235 C3.34117647,9.14957983 2.58151261,9.65378151 1.44537815,9.68403361 C1.45546218,11.0857143 1.51596639,14.010084 1.75462185,15.4117647 Z M16.6319328,1.99327731 L16.6319328,4.11092437 C16.6319328,4.90420168 16.8907563,5.57310924 17.3815126,6.04705882 C17.8722689,6.53109244 18.5747899,6.78319328 19.405042,6.78319328 L21.5731092,6.78319328 L16.6319328,1.99327731 L16.6319328,1.99327731 Z M23.3042017,6.45378151 C23.5058824,6.63529412 23.6235294,6.90756303 23.6235294,7.19663866 L23.6235294,21.9697479 C23.6235294,22.8605042 22.8537815,23.6235294 21.9394958,23.6235294 L7.36134454,23.6235294 C6.46722689,23.6235294 5.68739496,22.8504202 5.68739496,21.9697479 L5.68739496,20.7327731 C4.29243697,19.9966387 0.739495798,17.9361345 0.336134454,15.6638655 C-0.0100840336,13.6705882 -0.00336134454,9.09579832 0.00672268908,8.90084034 C0.00672268908,8.6789916 0.104201681,8.46722689 0.285714286,8.32941176 C0.457142857,8.19495798 0.678991597,8.14789916 0.900840336,8.20504202 C1.92268908,8.35966387 2.47058824,8 3.22352941,7.49915966 C3.83865546,7.08235294 4.58151261,6.59159664 5.68739496,6.42689076 L5.68739496,1.65714286 C5.68739496,0.786554622 6.48739496,0.00336134454 7.36134454,0.00336134454 L16.2386555,0.00336134454 C16.507563,0.00336134454 16.7697479,0.107563025 16.9714286,0.292436975 L23.3042017,6.45378151 Z M9.11260504,11.1630252 C9.39495798,10.8806723 9.85210084,10.8806723 10.1344538,11.1630252 C10.4168067,11.4453782 10.4168067,11.9058824 10.1344538,12.1882353 L6.22184874,16.1210084 C6.08067227,16.2621849 5.89579832,16.3327731 5.71092437,16.3327731 C5.52605042,16.3327731 5.34117647,16.2621849 5.2,16.1210084 L3.44201681,14.3529412 C3.15966387,14.0705882 3.15966387,13.610084 3.44201681,13.3277311 C3.72436975,13.0453782 4.18151261,13.0453782 4.46386555,13.3277311 L5.71092437,14.5815126 L9.11260504,11.1630252 Z" id="Documento_Archivo-ok_2Regular"></path>
        </g>
    </g>
</svg>

<svg width="24" height="24" viewBox="0 0 24 24" xmlns="http://www.w3.org/2000/svg"><path d="M22.178 21.97V8.232h-2.773c-1.213 0-2.262-.397-3.032-1.143-.77-.753-1.183-1.781-1.183-2.978V1.452H7.36c-.087 0-.232.135-.232.202v4.74c1.214.137 2.014.658 2.66 1.102.759.504 1.31.87 2.369.696.212-.03.434.02.598.164.155.135.26.33.26.541 0 .088 0 1.174-.041 2.498h6.376c.394 0 .723.33.723.726 0 .407-.33.726-.723.726h-6.423c-.03.716-.078 1.432-.145 2.044h6.585c.403 0 .723.32.723.726 0 .396-.32.726-.723.726h-6.894c-.31.706-.894 1.391-1.57 2.003h8.464c.403 0 .723.32.723.726 0 .397-.32.726-.723.726H8.948c-.743.474-1.425.834-1.819 1.036v1.142c0 .068.115.202.232.202H21.94c.125-.007.24-.12.24-.208zM1.755 15.412c.242 1.391 2.917 3.183 4.746 4.1 1.828-.917 4.517-2.709 4.756-4.1.114-.696.192-1.788.242-2.874a152 152 0 00.067-2.864c-1.166-.03-1.905-.521-2.581-.968-.713-.484-1.338-.901-2.484-.901s-1.762.417-2.484.9c-.676.445-1.435.949-2.572.979.01 1.402.071 4.326.31 5.728zM16.632 1.993v2.118c0 .793.259 1.462.75 1.936.49.484 1.193.736 2.023.736h2.168l-4.941-4.79zm6.672 4.46a1 1 0 01.32.744V21.97c0 .89-.77 1.654-1.685 1.654H7.361c-.894 0-1.674-.774-1.674-1.654v-1.237c-1.395-.736-4.948-2.797-5.35-5.07-.347-1.992-.34-6.567-.33-6.762A.711.711 0 01.9 8.205C1.923 8.36 2.47 8 3.224 7.499c.615-.417 1.358-.907 2.463-1.072v-4.77c0-.87.8-1.654 1.674-1.654h8.878c.269 0 .53.105.732.29l6.333 6.16zm-14.191 4.71a.722.722 0 011.021 0 .726.726 0 010 1.025l-3.912 3.933a.72.72 0 01-1.022 0l-1.758-1.768a.726.726 0 010-1.025.722.722 0 011.022 0l1.247 1.254 3.402-3.419z" fill="#5CB615" fill-rule="nonzero"/></svg>
